X: 1741
T: GILLESPIE'S HORNPIPE
M:2/4
L:1/16
B:O'NEILL'S 1741
N:"collected by J. O'Neill
Z:Transcribed by A.LEE WORMAN
K:A
(ed)|cBAc BAGB|Aaga fecA|GBEB Bcdf|edcd B2(ed)|
cBAc BAGB|Aaga fecA|GABc defg|a2A2 A2:|
|:(cd)|eaga eaga|eaga fecA|GABc dcde|fedc B2(cd)|
eaga eaga|eaga fecA|GABc defg|a2A2 A2:|


